X:387
T:Seumus Ruadh
T:Jamie Roy
T:Jamie Rae
B:The Gesto Collection, 1895
Z:Nigel Gatherer
M:6/8
L:1/8
K:A mix
B | AAA a3  | geg a3  | GGG g2e | dBd G2B |
    AAA a3  | geg a3  | ege dBd | e3  A2 :|
a | AAA e2A | dBA A2e | GGG g2e | dBd G2B 
  | AAA e2A | dBA g2a | ege dBd | e3  A2 :|
<end>
<start>
